X: 4064
T: Blessings Of Silver, The
R: reel
M: 4/4
K: Gminor
A|BdBG DG{A}GF|(3DFD CF DFCF|DG~G2 Bcdg|{a}gfdg fdcA|
Bdc_e dcBA|(3GAB AG FDC_E|DG~G2 Bcdg|fdcA G3:|
g|bg~g2 (3agf dc|(3A=Bc d=e ~f2fa|_bg~g2 f2gd|fd {cd}cA _BGGg|
bg~g2 (3agf dc|(3A=Bc d=e ~f2fa|gbag f2gd|fdcA BGG:|

